brandFactory_export/3.Masa/Arbol _3Masa.svg

<?xml version="1.0" encoding="UTF-8"?>
<svg width="24px" height="24px" viewBox="0 0 24 24" version="1.1" xmlns="http://www.w3.org/2000/svg" xmlns:xlink="http://www.w3.org/1999/xlink">
    <title>3.Masa/Arbol _3Masa</title>
    <g id="Symbols" stroke="none" stroke-width="1" fill="none" fill-rule="evenodd">
        <g id="3.Masa/Arbol-_3Masa" fill="#5CB615" fill-rule="nonzero">
            <path d="M20.7663866,7.2 C20.7663866,4.39327731 18.8436975,3.18319328 16.8739496,2.94789916 C15.9865546,0.786554622 13.6537815,0 11.6705882,0 C9.21680672,0 6.3697479,1.21008403 6.1210084,4.6487395 C4.80672269,5.20672269 4.08739496,6.34957983 4.08739496,7.92268908 C4.08739496,9.08235294 4.47058824,9.85882353 4.93781513,10.3697479 C4.33277311,11.0857143 4.02689076,12.0235294 4.02689076,13.1596639 C4.02689076,15.9831933 5.94957983,17.1865546 7.91932773,17.4084034 C8.62184874,19.1159664 10.2285714,19.9563025 11.8487395,20.2352941 L11.8487395,22.9042017 C11.8487395,23.3008403 12.1882353,23.6235294 12.605042,23.6235294 C13.0218487,23.6235294 13.3613445,23.3008403 13.3613445,22.9042017 L13.3613445,20.3428571 C13.3613445,20.3428571 12.810084,20.3193277 12.5344538,20.2991597 C12.2521008,20.2789916 11.8521008,20.2352941 11.8521008,20.2352941 L11.8521008,17.3243697 L8.8605042,14.4605042 C8.56806723,14.1781513 8.56806723,13.7243697 8.86386555,13.4420168 C9.15966387,13.1630252 9.63697479,13.1663866 9.93277311,13.4453782 L11.8554622,15.2840336 L11.8554622,9.14957983 C11.8554622,8.75294118 12.194958,8.4302521 12.6117647,8.4302521 C13.0285714,8.4302521 13.3680672,8.75294118 13.3680672,9.14957983 L13.3680672,11.3310924 L14.8605042,9.41176471 C15.1092437,9.09243697 15.5798319,9.02521008 15.9159664,9.2605042 C16.2521008,9.49579832 16.3226891,9.94621849 16.0739496,10.2655462 L13.394958,13.7176471 C13.3882353,13.7277311 13.3747899,13.7310924 13.3680672,13.7411765 L13.3680672,20.3495798 C15.7647059,20.2722689 18.4369748,19.0352941 18.6756303,15.7109244 C19.6,15.3210084 20.7092437,14.4369748 20.7092437,12.4369748 C20.7092437,11.2773109 20.3260504,10.5008403 19.8588235,9.98991597 C20.4605042,9.26386555 20.7663866,8.33277311 20.7663866,7.2" id="Path"></path>
        </g>
    </g>
</svg>

<svg width="24" height="24" viewBox="0 0 24 24" xmlns="http://www.w3.org/2000/svg"><path d="M20.766 7.2c0-2.807-1.922-4.017-3.892-4.252C15.987.787 13.654 0 11.67 0 9.217 0 6.37 1.21 6.12 4.649c-1.314.558-2.034 1.7-2.034 3.274 0 1.16.384 1.936.85 2.447-.604.716-.91 1.654-.91 2.79 0 2.823 1.923 4.027 3.892 4.248.703 1.708 2.31 2.548 3.93 2.827v2.67c0 .396.34.719.756.719.417 0 .756-.323.756-.72v-2.561s-.55-.024-.827-.044c-.282-.02-.682-.064-.682-.064v-2.91L8.861 14.46a.698.698 0 01.003-1.019.787.787 0 011.069.003l1.922 1.839V9.15c0-.397.34-.72.757-.72s.756.323.756.72v2.181l1.493-1.92a.78.78 0 011.055-.15.695.695 0 01.158 1.005l-2.679 3.452c-.007.01-.02.013-.027.023v6.609c2.397-.078 5.069-1.315 5.308-4.64.924-.389 2.033-1.273 2.033-3.273 0-1.16-.383-1.936-.85-2.447.602-.726.907-1.657.907-2.79" fill="#5CB615" fill-rule="nonzero"/></svg>
